**kern	**silbe	**harmony	**phrase	**leadinstrument	**rhyme	**timestamp	**harte
*ICvox	*	*M4/4	*	*	*	*	*M4/4
*VRlead	*	*	*	*	*	*	*
*Hstimme	*	*	*	*	*	*	*
*E:	*	*E:	*	*	*	*	*E:
*M4/4	*	*	*	*	*	*	*
*clefG2	*	*	*	*	*	*	*
r;	.	1r;	.	r	.	0	N.C.
=1	=1	=1	=1	=1	=1	=1	=1
*>Letter>A	*>Letter>A	*>Letter>A	*>Letter>A	*>Letter>A	*>Letter>A	*>Letter>A	*>Letter>A
*>Label>Intro	*>Label>Intro	*>Label>Intro	*>Label>Intro	*>Label>Intro	*>Label>Intro	*>Label>Intro	*>Label>Intro
1r	.	1BM	newline	saxophone	.	0.209	B:maj
=2	=2	=2	=2	=2	=2	=2	=2
1r	.	1AM	.	saxophone	.	1.848	A:maj
=3	=3	=3	=3	=3	=3	=3	=3
1r	.	1EM	.	saxophone	.	3.487	E:maj
=4	=4	=4	=4	=4	=4	=4	=4
2r	.	1EM	.	saxophone	.	5.126	E:maj
8e	Come	.	.	.	.	.	.
8f#	on	.	.	.	.	.	.
8g#	_	.	.	.	.	.	.
[8g#	-Ba	.	.	.	.	.	.
=5	=5	=5	=5	=5	=5	=5	=5
*>Letter>B	*>Letter>B	*>Letter>B	*>Letter>B	*>Letter>B	*>Letter>B	*>Letter>B	*>Letter>B
*>Label>Verse	*>Label>Verse	*>Label>Verse	*>Label>Verse	*>Label>Verse	*>Label>Verse	*>Label>Verse	*>Label>Verse
8g#]	_	1EM	newline	voice	.	6.764	E:maj
8g#	by	.	.	.	.	.	.
2r	.	.	.	.	.	.	.
4r	.	.	.	.	.	.	.
=6	=6	=6	=6	=6	=6	=6	=6
4r	.	1EM	.	voice	.	8.274	E:maj
4e	lets	.	.	.	.	.	.
4g#	do	.	.	.	.	.	.
4f#	the	.	.	.	.	.	.
=7	=7	=7	=7	=7	=7	=7	=7
4e	twist	1EM	.	voice	A	9.783	E:maj
2r	.	.	.	.	.	.	.
4r	.	.	.	.	.	.	.
=8	=8	=8	=8	=8	=8	=8	=8
2r	.	1EM	.	voice	.	11.292	E:maj
8e	Come	.	.	.	.	.	.
8f#	on	.	.	.	.	.	.
8g#	_	.	.	.	.	.	.
8f#	ba-	.	.	.	.	.	.
=9	=9	=9	=9	=9	=9	=9	=9
4.e	_	1AM	newline	voice	.	12.801	A:maj
[8a	-by	.	.	.	.	.	.
2a]	_	.	.	.	.	.	.
=10	=10	=10	=10	=10	=10	=10	=10
4r	.	1AM	.	voice	.	14.322	A:maj
4e	lets	.	.	.	.	.	.
4g#	do	.	.	.	.	.	.
4f#	the	.	.	.	.	.	.
=11	=11	=11	=11	=11	=11	=11	=11
4e	twist	1EM	.	voice	A	15.843	E:maj
2r	.	.	.	.	.	.	.
4r	.	.	.	.	.	.	.
=12	=12	=12	=12	=12	=12	=12	=12
8r	.	1EM	.	voice	.	17.364	E:maj
8g#	take	.	.	.	.	.	.
8g#	me	.	.	.	.	.	.
4g#	by	.	.	.	.	.	.
8e	my	.	.	.	.	.	.
8g#	lit-	.	.	.	.	.	.
8e	-tle	.	.	.	.	.	.
=13	=13	=13	=13	=13	=13	=13	=13
8f#	hand	1BM	newline	voice	.	18.885	B:maj
4B	_	.	.	.	.	.	.
2r	.	.	.	.	.	.	.
8r	.	.	.	.	.	.	.
=14	=14	=14	=14	=14	=14	=14	=14
4r	.	1AM	.	voice	.	20.411	A:maj
8c#	and	.	.	.	.	.	.
8e	go	.	.	.	.	.	.
4B	_	.	.	.	.	.	.
4e	like	.	.	.	.	.	.
=15	=15	=15	=15	=15	=15	=15	=15
4e	this	1EM	.	voice	A	21.937	E:maj
2r	.	.	.	.	.	.	.
8r	.	.	.	.	.	.	.
8f#	Ee	.	.	.	.	.	.
=16	=16	=16	=16	=16	=16	=16	=16
4.g#	_	1EM	.	voice	.	23.463	E:maj
8f#	ya	.	.	.	.	.	.
2e	_	.	.	.	.	.	.
=17	=17	=17	=17	=17	=17	=17	=17
*>Letter>B	*>Letter>B	*>Letter>B	*>Letter>B	*>Letter>B	*>Letter>B	*>Letter>B	*>Letter>B
*>Label>Chorus	*>Label>Chorus	*>Label>Chorus	*>Label>Chorus	*>Label>Chorus	*>Label>Chorus	*>Label>Chorus	*>Label>Chorus
4g#	Twist	1EM	newline	voice	A	24.989	E:maj
2r	.	.	.	.	.	.	.
8r	.	.	.	.	.	.	.
8f#	-ba-	.	.	.	.	.	.
=18	=18	=18	=18	=18	=18	=18	=18
4e	_	1EM	.	voice	.	26.51	E:maj
8e	-by	.	.	.	.	.	.
8f#	ba-	.	.	.	.	.	.
4e	_	.	.	.	.	.	.
4e	by	.	.	.	.	.	.
=19	=19	=19	=19	=19	=19	=19	=19
4e	twist	1EM	.	voice	A	28.031	E:maj
2r	.	.	.	.	.	.	.
4r	.	.	.	.	.	.	.
=20	=20	=20	=20	=20	=20	=20	=20
4.b	Ooh	1EM	.	voice	.	29.552	E:maj
4cc#	_	.	.	.	.	.	.
4b	_	.	.	.	.	.	.
8f#	yeah	.	.	.	.	.	.
=21	=21	=21	=21	=21	=21	=21	=21
4g#	_	1AM	newline	voice	.	31.073	A:maj
8f#	_	.	.	.	.	.	.
[8e	_	.	.	.	.	.	.
2e]	_	.	.	.	.	.	.
=22	=22	=22	=22	=22	=22	=22	=22
4r	.	1AM	.	voice	.	32.577	A:maj
8r	.	.	.	.	.	.	.
4f#	just	.	.	.	.	.	.
4.g#	like	.	.	.	.	.	.
=23	=23	=23	=23	=23	=23	=23	=23
8f#	this	1EM	.	voice	A	34.081	E:maj
8e	_	.	.	.	.	.	.
2r	.	.	.	.	.	.	.
4r	.	.	.	.	.	.	.
=24	=24	=24	=24	=24	=24	=24	=24
4r	.	1EM	.	voice	.	35.586	E:maj
8B	Come	.	.	.	.	.	.
4f#	on	.	.	.	.	.	.
8g#	lit-	.	.	.	.	.	.
8e	-tle	.	.	.	.	.	.
8f#	miss	.	.	.	A	.	.
=25	=25	=25	=25	=25	=25	=25	=25
4B	_	1BM	newline	voice	.	37.09	B:maj
2r	.	.	.	.	.	.	.
4r	.	.	.	.	.	.	.
=26	=26	=26	=26	=26	=26	=26	=26
4r	.	1AM	.	voice	.	38.619	A:maj
8c#	and	.	.	.	.	.	.
8e	do	.	.	.	.	.	.
4B	_	.	.	.	.	.	.
4e	the	.	.	.	.	.	.
=27	=27	=27	=27	=27	=27	=27	=27
4e	twist	1EM	.	voice	A	40.149	E:maj
2r	.	.	.	.	.	.	.
4r	.	.	.	.	.	.	.
=28	=28	=28	=28	=28	=28	=28	=28
8r	.	1EM	.	voice	.	41.678	E:maj
4c#	My	.	.	.	.	.	.
8e	da-	.	.	.	.	.	.
8e	-ddy	.	.	.	.	.	.
4f#	is	.	.	.	.	.	.
[8g#	sleep-	.	.	.	.	.	.
=29	=29	=29	=29	=29	=29	=29	=29
*>Letter>B	*>Letter>B	*>Letter>B	*>Letter>B	*>Letter>B	*>Letter>B	*>Letter>B	*>Letter>B
*>Label>Verse	*>Label>Verse	*>Label>Verse	*>Label>Verse	*>Label>Verse	*>Label>Verse	*>Label>Verse	*>Label>Verse
8g#]	_	1EM	newline	voice	.	43.208	E:maj
8f#	-in	.	.	.	.	.	.
8e	_	.	.	.	.	.	.
2r	.	.	.	.	.	.	.
8r	.	.	.	.	.	.	.
=30	=30	=30	=30	=30	=30	=30	=30
8r	.	1EM	.	voice	.	44.736	E:maj
4e	and	.	.	.	.	.	.
8g#	ma-	.	.	.	.	.	.
8g#	-ma	.	.	.	.	.	.
8f#	ain't	.	.	.	.	.	.
8e	a-	.	.	.	.	.	.
8e	-round	.	.	.	B	.	.
=31	=31	=31	=31	=31	=31	=31	=31
8c#	_	1EM	.	voice	.	46.264	E:maj
8B	_	.	.	.	.	.	.
2r	.	.	.	.	.	.	.
8r	.	.	.	.	.	.	.
8g#	yeah	.	.	.	.	.	.
=32	=32	=32	=32	=32	=32	=32	=32
8e	_	1EM	.	voice	.	47.792	E:maj
4r	.	.	.	.	.	.	.
8g#	Da-	.	.	.	.	.	.
8e	-ddy	.	.	.	.	.	.
4f#	just	.	.	.	.	.	.
8f#	slee-	.	.	.	.	.	.
=33	=33	=33	=33	=33	=33	=33	=33
4.e	_	1AM	newline	voice	.	49.32	A:maj
[8a	pin'	.	.	.	.	.	.
2a]	_	.	.	.	.	.	.
=34	=34	=34	=34	=34	=34	=34	=34
8r	.	1AM	.	voice	.	50.826	A:maj
4e	and	.	.	.	.	.	.
8a	ma-	.	.	.	.	.	.
8a	-ma	.	.	.	.	.	.
8g	ain't	.	.	.	.	.	.
8g#	a-	.	.	.	.	.	.
8f#	-round	.	.	.	B	.	.
=35	=35	=35	=35	=35	=35	=35	=35
4e	_	1EM	.	voice	.	52.332	E:maj
2r	.	.	.	.	.	.	.
4r	.	.	.	.	.	.	.
=36	=36	=36	=36	=36	=36	=36	=36
8r	.	1EM	.	voice	.	53.838	E:maj
8g#	we're	.	.	.	.	.	.
16g#	gon-	.	.	.	.	.	.
16g#	-na	.	.	.	.	.	.
4g#	twist	.	.	.	A	.	.
8e	it	.	.	.	.	.	.
8g#	twist	.	.	.	A	.	.
[8e	it	.	.	.	.	.	.
=37	=37	=37	=37	=37	=37	=37	=37
8e]	_	1BM	newline	voice	.	55.344	B:maj
8f#	twist-	.	.	.	A	.	.
4B	-in	.	.	.	.	.	.
2r	.	.	.	.	.	.	.
=38	=38	=38	=38	=38	=38	=38	=38
8r	.	1AM	.	voice	.	56.872	A:maj
8c#	till	.	.	.	.	.	.
8c#	we	.	.	.	.	.	.
8e	tear	.	.	.	.	.	.
8c#	the	.	.	.	.	.	.
4e	house	.	.	.	.	.	.
[8e	down	.	.	.	B	.	.
=39	=39	=39	=39	=39	=39	=39	=39
4e]	_	1EM	.	voice	.	58.4	E:maj
2r	.	.	.	.	.	.	.
8r	.	.	.	.	.	.	.
8f#	Come	.	.	.	.	.	.
=40	=40	=40	=40	=40	=40	=40	=40
4.g#	_	1EM	.	voice	.	59.928	E:maj
8f#	on	.	.	.	.	.	.
4e	_	.	.	.	.	.	.
4e	and	.	.	.	.	.	.
=41	=41	=41	=41	=41	=41	=41	=41
*>Letter>B	*>Letter>B	*>Letter>B	*>Letter>B	*>Letter>B	*>Letter>B	*>Letter>B	*>Letter>B
*>Label>Chorus	*>Label>Chorus	*>Label>Chorus	*>Label>Chorus	*>Label>Chorus	*>Label>Chorus	*>Label>Chorus	*>Label>Chorus
4g#	Twist	1EM	newline	voice	A	61.456	E:maj
2r	.	.	.	.	.	.	.
8r	.	.	.	.	.	.	.
8f#	yeah	.	.	.	.	.	.
=42	=42	=42	=42	=42	=42	=42	=42
4e	_	1EM	.	voice	.	62.985	E:maj
8r	.	.	.	.	.	.	.
8f#	ba-	.	.	.	.	.	.
4e	_	.	.	.	.	.	.
4e	-by	.	.	.	.	.	.
=43	=43	=43	=43	=43	=43	=43	=43
4e	twist	1EM	.	voice	A	64.514	E:maj
2r	.	.	.	.	.	.	.
4r	.	.	.	.	.	.	.
=44	=44	=44	=44	=44	=44	=44	=44
4.b	Ooh	1EM	.	voice	.	66.043	E:maj
4cc#	_	.	.	.	.	.	.
4b	_	.	.	.	.	.	.
8f#	yeah	.	.	.	.	.	.
=45	=45	=45	=45	=45	=45	=45	=45
4g#	_	1AM	newline	voice	.	67.572	A:maj
8f#	_	.	.	.	.	.	.
[8e	_	.	.	.	.	.	.
2e]	_	.	.	.	.	.	.
=46	=46	=46	=46	=46	=46	=46	=46
4r	.	1AM	.	voice	.	69.094	A:maj
8r	.	.	.	.	.	.	.
4f#	just	.	.	.	.	.	.
4.g#	like	.	.	.	.	.	.
=47	=47	=47	=47	=47	=47	=47	=47
8f#	this	1EM	.	voice	A	70.616	E:maj
8e	_	.	.	.	.	.	.
2r	.	.	.	.	.	.	.
4r	.	.	.	.	.	.	.
=48	=48	=48	=48	=48	=48	=48	=48
8r	.	1EM	.	voice	.	72.138	E:maj
4B	Come	.	.	.	.	.	.
4f#	on	.	.	.	.	.	.
8g#	lit-	.	.	.	.	.	.
8e	-tle	.	.	.	.	.	.
8f#	miss	.	.	.	A	.	.
=49	=49	=49	=49	=49	=49	=49	=49
4B	_	1BM	newline	voice	.	73.66	B:maj
2r	.	.	.	.	.	.	.
4r	.	.	.	.	.	.	.
=50	=50	=50	=50	=50	=50	=50	=50
4r	.	1AM	.	voice	.	75.173	A:maj
8c#	and	.	.	.	.	.	.
8e	do	.	.	.	.	.	.
4B	_	.	.	.	.	.	.
4e	the	.	.	.	.	.	.
=51	=51	=51	=51	=51	=51	=51	=51
4e	twist	1EM	.	voice	A	76.687	E:maj
2r	.	.	.	.	.	.	.
8r	.	.	.	.	.	.	.
8f#	Ee	.	.	.	.	.	.
=52	=52	=52	=52	=52	=52	=52	=52
4.g#	_	1EM	.	voice	.	78.2	E:maj
8f#	ya	.	.	.	.	.	.
2e	_	.	.	.	.	.	.
=53	=53	=53	=53	=53	=53	=53	=53
*>Letter>B	*>Letter>B	*>Letter>B	*>Letter>B	*>Letter>B	*>Letter>B	*>Letter>B	*>Letter>B
*>Label>Solo	*>Label>Solo	*>Label>Solo	*>Label>Solo	*>Label>Solo	*>Label>Solo	*>Label>Solo	*>Label>Solo
1r	.	1EM	newline	saxophone	.	79.713	E:maj
=54	=54	=54	=54	=54	=54	=54	=54
1r	.	1EM	.	saxophone	.	81.24	E:maj
=55	=55	=55	=55	=55	=55	=55	=55
1r	.	1EM	.	saxophone	.	82.767	E:maj
=56	=56	=56	=56	=56	=56	=56	=56
1r	.	1EM	.	saxophone	.	84.294	E:maj
=57	=57	=57	=57	=57	=57	=57	=57
1r	.	1AM	newline	saxophone	.	85.821	A:maj
=58	=58	=58	=58	=58	=58	=58	=58
1r	.	1AM	.	saxophone	.	87.351	A:maj
=59	=59	=59	=59	=59	=59	=59	=59
1r	.	1EM	.	saxophone	.	88.881	E:maj
=60	=60	=60	=60	=60	=60	=60	=60
1r	.	1EM	.	saxophone	.	90.411	E:maj
=61	=61	=61	=61	=61	=61	=61	=61
1r	.	1BM	newline	saxophone	.	91.941	B:maj
=62	=62	=62	=62	=62	=62	=62	=62
1r	.	1AM	.	saxophone	.	93.454	A:maj
=63	=63	=63	=63	=63	=63	=63	=63
1r	.	1EM	.	saxophone	.	94.967	E:maj
=64	=64	=64	=64	=64	=64	=64	=64
4.b	Yeah	1EM	.	saxophone	.	96.48	E:maj
4g#	you	.	.	.	.	.	.
4g#	should	.	.	.	.	.	.
[8g#	see	.	.	.	.	.	.
=65	=65	=65	=65	=65	=65	=65	=65
*>Letter>B	*>Letter>B	*>Letter>B	*>Letter>B	*>Letter>B	*>Letter>B	*>Letter>B	*>Letter>B
*>Label>Verse	*>Label>Verse	*>Label>Verse	*>Label>Verse	*>Label>Verse	*>Label>Verse	*>Label>Verse	*>Label>Verse
4g#]	_	1EM	newline	voice	.	97.993	E:maj
8f#	_	.	.	.	.	.	.
[8e	_	.	.	.	.	.	.
2e]	_	.	.	.	.	.	.
=66	=66	=66	=66	=66	=66	=66	=66
4r	.	1EM	.	voice	.	99.533	E:maj
8r	.	.	.	.	.	.	.
4e	my	.	.	.	.	.	.
8e	lit-	.	.	.	.	.	.
8c#	-tle	.	.	.	.	.	.
[8e	sis	.	.	.	A	.	.
=67	=67	=67	=67	=67	=67	=67	=67
8e]	_	1EM	.	voice	.	101.073	E:maj
2r	.	.	.	.	.	.	.
4r	.	.	.	.	.	.	.
8r	.	.	.	.	.	.	.
=68	=68	=68	=68	=68	=68	=68	=68
4r	.	1EM	.	voice	.	102.614	E:maj
8r	.	.	.	.	.	.	.
4e	you	.	.	.	.	.	.
4g#	should	.	.	.	.	.	.
8f#	see	.	.	.	.	.	.
=69	=69	=69	=69	=69	=69	=69	=69
4.e	_	1AM	newline	voice	.	104.154	A:maj
[8a	my	.	.	.	.	.	.
2a]	_	.	.	.	.	.	.
=70	=70	=70	=70	=70	=70	=70	=70
4r	.	1AM	.	voice	.	105.663	A:maj
8r	.	.	.	.	.	.	.
8f#	my	.	.	.	.	.	.
8g#	_	.	.	.	.	.	.
8f#	lit-	.	.	.	.	.	.
8e	-tle	.	.	.	.	.	.
8e	sis	.	.	.	A	.	.
=71	=71	=71	=71	=71	=71	=71	=71
1r	.	1EM	.	voice	.	107.172	E:maj
=72	=72	=72	=72	=72	=72	=72	=72
8r	.	1EM	.	voice	.	108.681	E:maj
8f#	she	.	.	.	.	.	.
8g#	rea-	.	.	.	.	.	.
8f#	-lly	.	.	.	.	.	.
8g#	knows	.	.	.	.	.	.
8f#	_	.	.	.	.	.	.
8g#	how	.	.	.	.	.	.
8e	to	.	.	.	.	.	.
=73	=73	=73	=73	=73	=73	=73	=73
8f#	rock	1BM	newline	voice	.	110.19	B:maj
8B	_	.	.	.	.	.	.
2r	.	.	.	.	.	.	.
4r	.	.	.	.	.	.	.
=74	=74	=74	=74	=74	=74	=74	=74
4r	.	1AM	.	voice	.	111.73	A:maj
8c#	she	.	.	.	.	.	.
8e	knows	.	.	.	.	.	.
4B	_	.	.	.	.	.	.
8e	how	.	.	.	.	.	.
8c#	to	.	.	.	.	.	.
=75	=75	=75	=75	=75	=75	=75	=75
4e	twist	1EM	.	voice	A	113.269	E:maj
2r	.	.	.	.	.	.	.
8r	.	.	.	.	.	.	.
8f#	Come	.	.	.	.	.	.
=76	=76	=76	=76	=76	=76	=76	=76
4.g#	_	1EM	.	voice	.	114.809	E:maj
8f#	on	.	.	.	.	.	.
4e	_	.	.	.	.	.	.
4e	and	.	.	.	.	.	.
=77	=77	=77	=77	=77	=77	=77	=77
*>Letter>B	*>Letter>B	*>Letter>B	*>Letter>B	*>Letter>B	*>Letter>B	*>Letter>B	*>Letter>B
*>Label>Chorus	*>Label>Chorus	*>Label>Chorus	*>Label>Chorus	*>Label>Chorus	*>Label>Chorus	*>Label>Chorus	*>Label>Chorus
4g#	Twist	1EM	newline	voice	A	116.348	E:maj
2r	.	.	.	.	.	.	.
8r	.	.	.	.	.	.	.
8f#	yeah	.	.	.	.	.	.
=78	=78	=78	=78	=78	=78	=78	=78
4e	_	1EM	.	voice	.	117.878	E:maj
8r	.	.	.	.	.	.	.
8f#	ba-	.	.	.	.	.	.
4e	_	.	.	.	.	.	.
4e	-by	.	.	.	.	.	.
=79	=79	=79	=79	=79	=79	=79	=79
4e	twist	1EM	.	voice	A	119.408	E:maj
2r	.	.	.	.	.	.	.
8r	.	.	.	.	.	.	.
[8b	Ooh	.	.	.	.	.	.
=80	=80	=80	=80	=80	=80	=80	=80
4.b]	_	1EM	.	voice	.	120.937	E:maj
4cc#	_	.	.	.	.	.	.
4b	_	.	.	.	.	.	.
8f#	yeah	.	.	.	.	.	.
=81	=81	=81	=81	=81	=81	=81	=81
4g#	_	1AM	newline	voice	.	122.467	A:maj
8f#	_	.	.	.	.	.	.
[8e	_	.	.	.	.	.	.
2e]	_	.	.	.	.	.	.
=82	=82	=82	=82	=82	=82	=82	=82
4r	.	1AM	.	voice	.	124.001	A:maj
8r	.	.	.	.	.	.	.
4f#	just	.	.	.	.	.	.
4.g#	like	.	.	.	.	.	.
=83	=83	=83	=83	=83	=83	=83	=83
8f#	this	1EM	.	voice	A	125.535	E:maj
8e	_	.	.	.	.	.	.
2r	.	.	.	.	.	.	.
4r	.	.	.	.	.	.	.
=84	=84	=84	=84	=84	=84	=84	=84
8r	.	1EM	.	voice	.	127.069	E:maj
4B	Come	.	.	.	.	.	.
4f#	on	.	.	.	.	.	.
8g#	lit-	.	.	.	.	.	.
8e	-tle	.	.	.	.	.	.
8f#	miss	.	.	.	A	.	.
=85	=85	=85	=85	=85	=85	=85	=85
4B	_	1BM	newline	voice	.	128.603	B:maj
2r	.	.	.	.	.	.	.
4r	.	.	.	.	.	.	.
=86	=86	=86	=86	=86	=86	=86	=86
4r	.	1AM	.	voice	.	130.137	A:maj
8c#	and	.	.	.	.	.	.
8e	do	.	.	.	.	.	.
4B	_	.	.	.	.	.	.
4e	the	.	.	.	.	.	.
=87	=87	=87	=87	=87	=87	=87	=87
4e	twist	1EM	.	voice	A	131.671	E:maj
2r	.	.	.	.	.	.	.
4r	.	.	.	.	.	.	.
=88	=88	=88	=88	=88	=88	=88	=88
2r	.	1EM	.	voice	.	133.205	E:maj
4r	.	.	.	.	.	.	.
8r	.	.	.	.	.	.	.
[8e	Yeah	.	.	.	.	.	.
=89	=89	=89	=89	=89	=89	=89	=89
*>Letter>B	*>Letter>B	*>Letter>B	*>Letter>B	*>Letter>B	*>Letter>B	*>Letter>B	*>Letter>B
*>Label>Chorus	*>Label>Chorus	*>Label>Chorus	*>Label>Chorus	*>Label>Chorus	*>Label>Chorus	*>Label>Chorus	*>Label>Chorus
8e]	_	1EM	newline	voice	.	134.739	E:maj
2r	.	.	.	.	.	.	.
4r	.	.	.	.	.	.	.
8r	.	.	.	.	.	.	.
=90	=90	=90	=90	=90	=90	=90	=90
2r	.	1EM	.	voice	.	136.271	E:maj
4r	.	.	.	.	.	.	.
8r	.	.	.	.	.	.	.
[8g#	rock	.	.	.	.	.	.
=91	=91	=91	=91	=91	=91	=91	=91
8g#]	_	1EM	.	voice	.	137.804	E:maj
4.g#	on	.	.	.	.	.	.
8f#	now	.	.	.	.	.	.
8e	_	.	.	.	.	.	.
4r	.	.	.	.	.	.	.
=92	=92	=92	=92	=92	=92	=92	=92
1r	.	1EM	.	voice	.	139.336	E:maj
=93	=93	=93	=93	=93	=93	=93	=93
2r	.	1AM	newline	voice	.	140.869	A:maj
4r	.	.	.	.	.	.	.
8r	.	.	.	.	.	.	.
8f#	yeah	.	.	.	.	.	.
=94	=94	=94	=94	=94	=94	=94	=94
4g#	_	1AM	.	voice	.	142.395	A:maj
8f#	_	.	.	.	.	.	.
2e	_	.	.	.	.	.	.
8r	.	.	.	.	.	.	.
=95	=95	=95	=95	=95	=95	=95	=95
2r	.	1EM	.	voice	.	143.922	E:maj
4r	.	.	.	.	.	.	.
8r	.	.	.	.	.	.	.
[8g#	twist	.	.	.	A	.	.
=96	=96	=96	=96	=96	=96	=96	=96
8g#]	_	1EM	.	voice	.	145.448	E:maj
4.g#	on	.	.	.	.	.	.
8f#	down	.	.	.	.	.	.
8e	_	.	.	.	.	.	.
4r	.	.	.	.	.	.	.
=97	=97	=97	=97	=97	=97	=97	=97
2r	.	1BM	newline	voice	.	146.974	B:maj
4r	.	.	.	.	.	.	.
8r	.	.	.	.	.	.	.
8f#	twist	.	.	.	A	.	.
=98	=98	=98	=98	=98	=98	=98	=98
8g#	_	1AM	.	voice	.	148.508	A:maj
[8f#	_	.	.	.	.	.	.
2.f#]	_	.	.	.	.	.	.
=99	=99	=99	=99	=99	=99	=99	=99
1r	.	1EM	.	voice	.	150.042	E:maj
=100	=100	=100	=100	=100	=100	=100	=100
1r	.	1EM	.	voice	.	151.577	E:1
r;	.	1r;	.	r	.	153.111	N.C.
r;	.	1r;	.	r	.	156.299	N.C.
*-	*-	*-	*-	*-	*-	*-	*-
!!!BillboardChartDate: 1962/03/17, 1962/03/24
!!!BillboardPeak: 1, 1
!!!BillboardWeeksOnChart: 38, 38
!!!COC: Chubby Checker
!!!ENC: Nathaniel Condit-Schultz
!!!EST: Awating manual error checking and editing.
!!!OTL: The Twist
!!!RDF**chordsym: original McGill chord annotation + (implied pitch class set, with bass pitch in first position)
!!!RDF**harmony: **recip + pitch class of root + harmonic quality
!!!RDF**leadinstrument: original McGill primary instrumentation annotation
!!!RDF**phrase: newline = linebreak in original McGill transcription
!!!RDF**timestamp: McGill audio timestamp in seconds
!!!RDT: 2017/01/12/
!!!SampleActualRank: 24, 32
!!!SampleID#: 948, 1103
!!!SampleTargetRank: 25, 31
